X:75
T:La fille aux oranges
R:Chanson
O:France
B:Le livre des Chansons (Henri Davenson) n°75
Z:<anamnese@caramail.com> -- http://anamnese.fr.st
M:6/8
L:1/8
Q:1/4=150
K:F
F | F2 G A2 B | c3 c z2 | f3 c2 d | c3 c z :|!
c | c2 c A2 F | B2 z A2 G | A3 G2 F | G3-G z c |!
c2 c A2 F | B2 z A A G | A2 c A2 G | F6 ||
W:Au jardin de mon père / Vive la rose ! (2x)
W:   Un oranger il y a / Vive ci, vive là
W:   Un oranger il y a / Vive la rose et le damas !
W:
W:Qu'est si chargé d'oranges qu'on croit qu'il en rompra. /.../

